packages/kaspersky-hexa-ui-icons/src/iconsSVGs/48/Printer.svg

<svg xmlns="http://www.w3.org/2000/svg" width="48" height="48" fill="none" viewBox="0 0 48 48"><path fill="currentColor" fill-rule="evenodd" d="M45 22h-6V6.59L32.41 0H9v22H3c-1.6568 0-3 1.3431-3 3v12c0 1.6569 1.3432 3 3 3h4v-2H3c-.5523 0-1-.4477-1-1v-7h44v7c0 .5523-.4477 1-1 1h-4v2h4c1.6569 0 3-1.3431 3-3V25c0-1.6569-1.3431-3-3-3M33 3.41 35.59 6H33zM11 2h20v6h6v14H11zM2 28v-3c0-.5523.4477-1 1-1h42c.5523 0 1 .4477 1 1v3zm2-3h2v2H4zm3 0h2v2H7zm34 10v-2H7v2h2v13h30V35zm-4 11H11V35h26zm-4-8H15v-2h18zm0 3H15v-2h18zm-18 3v-2h18v2z" clip-rule="evenodd"/></svg>

<svg width="48" height="48" viewBox="0 0 48 48" fill="none" xmlns="http://www.w3.org/2000/svg">
<path fill-rule="evenodd" clip-rule="evenodd" d="M45 22H39V6.59L32.41 0H9V22H3C1.34315 22 0 23.3431 0 25V37C0 38.6569 1.34315 40 3 40H7V38H3C2.44772 38 2 37.5523 2 37V30H46V37C46 37.5523 45.5523 38 45 38H41V40H45C46.6569 40 48 38.6569 48 37V25C48 23.3431 46.6569 22 45 22ZM33 3.41L35.59 6H33V3.41ZM11 2H31V8H37V22H11V2ZM2 28V25C2 24.4477 2.44772 24 3 24H45C45.5523 24 46 24.4477 46 25V28H2ZM4 25H6V27H4V25ZM7 25H9V27H7V25ZM41 35V33H7V35H9V48H39V35H41ZM37 46H11V35H37V46ZM33 38H15V36H33V38ZM33 41H15V39H33V41ZM15 44V42H33V44H15Z"  fill="currentColor"/>
</svg>
